X:1
T:Let the Gospel Trumpet Sound
T:Let the Gospel Trumpet Sound
T:William Batchelder Bradbury
T:William Batchelder Bradbury, 1866
T:Public Domain Courtesy of the Cyber Hymnal™
T:Public Domain Courtesy of the Cyber Hymnal™
C:William Batchelder Bradbury
Z:Public Domain
Z:Courtesy of the Cyber Hymnal™
%%score ( 1 2 ) ( 3 4 )
L:1/8
Q:1/4=82
M:2/4
K:D
V:1 treble 
V:2 treble 
V:3 bass 
V:4 bass 
V:1
 D/[DE]/ | [DF][FA] [FA][GB] | [FA]3 [EG]/[DF]/ | [EG][GB] [GB][Ac] | [GB]3 [EG]/[DF]/ | %5
w: 1.~Let the|Gos- pel trump- et|sound, And the|joy- ful tid- ings|roll, Shed- ding|
w: 2.~“Go ye|forth to ev- ery|land, Preach the|Gos- pel in My|name,” Was the|
w: 3.~From their|i- dols turned a-|way, By the|light of par- doning|love, Shall the|
 [CE][EG] [EG][FA] | [EG]3 [DF]/[CE]/ | [DF][FA] [FA][DF] | [CE]3 D/[DE]/ | [DF][FA] [FA][GB] | %10
w: life and peace a-|round, ’Till they|reach from pole to|pole. From the|snow clad mount- ain|
w: Sav- ior’s great com-|mand; Joy to|ev- ery soul pro-|claim, To the|wea- ry tell of|
w: na- tions learn to|pray To the|God who reigns a-|bove; From the|is- lands of the|
 [FA]3 [EG]/[DF]/ | [EG][GB] [GB][Ac] | [GB]3 [FA]/[EG]/ | [DF][FA] [EG][DF] | [CE][EG] [DF][CE] | %15
w: peak, O’er the|smil- ing vales be-|low, Let the|heal- ing stream of|mer- cy Like a|
w: rest; O- pen|wide the pri- son|door, “Fear ye|not, for I am|with you, Till the|
w: deep, O- ver|In- dia’s sul- try|plain, Shall a|chor- al hymn be|waft- ed To our|
 D[DF] [CF]>[CE] | D3 [CA]/[CG]/ | [DF][FA] [Fd]>[Ge] | [Fd]3 [Fd]/[Ac]/ | [GB][Ge] [Ge]>[GB] | %20
w: gen- tle ri- ver|flow; For the|time is draw- ing|near, And a|glor- ious time ’twill|
w: world shall be no|more.” Lo, the|mis- sion fields are|white With your|ban- ners wide un-|
w: na- tive land a-|gain. For the|time is draw- ing|near, And a|glor- ious time ’twill|
 [Ge]3 [^Gd]/[Gd]/ | [Ac][ce] [Bd][Ac] | [^GB][Bd] [Ac][GB] | A[Ac] [^GB][Ge] | [Ac]3 [CA]/[CG]/ | %25
w: be, When the|truth shall o- ver-|spread the earth, As|wa- ters fill the|sea; And Mes-|
w: furled, Go, ye|her- alds of sal-|va- tion, Preach re-|pent- ance to the|world. With the|
w: be, When the|truth shall o- ver-|spread the earth As|wa- ters fill the|sea; And Mes-|
 [DF][FA] [Fd]>[Ge] | [Fd]3 [Fd]/[Ac]/ | [GB][Ge] [Ge]>[GB] | [Ge]3 [^Gd]/[Gd]/ | %29
w: si- ah’s ho- ly|name Be in|ev- ery clime a-|dored, And the|
w: Bi- ble in your|hand, And your|Fa- ther’s smile to|cheer, You shall|
w: si- ah’s ho- ly|name Be in|ev- ery clime a-|dored, And the|
 [Ac][ce] [Bd][Ac] | [^GB][Bd] [Ac][GB] | A[Ac] [^GB][Gc] | A3 ||"^Refrain" D/[DE]/ | %34
w: king- doms of the|world be- come The|king- doms of the|Lord.||
w: reap a gold- en|har- vest, And the|hap- py time is|near.|Let the|
w: king- doms of the|world be- come The|king- doms of the|Lord.||
 [DF][FA] [FA][GB] | [FA]3 [EG]/[DF]/ | [EG][GB] [GB][Ac] | [GB]3 [FA]/[EG]/ | [DF][FA] [EG][DF] | %39
w: |||||
w: Gos- pel trump- et|sound, And the|joy- ful tid- ings|roll, Like the|migh- ty waves of|
w: |||||
 [CE][EG] [DF][CE] | D[DF] [CF]>[CE] | D3 |] %42
w: |||
w: o- cean wide, That|reach from pole to|pole.|
w: |||
V:2
 D/ x/ | x4 | x4 | x4 | x4 | x4 | x4 | x4 | x3 D/ x/ | x4 | x4 | x4 | x4 | x4 | x4 | D x3 | D3 x | %17
 x4 | x4 | x4 | x4 | x4 | x4 | A x3 | x4 | x4 | x4 | x4 | x4 | x4 | x4 | A x3 | A3 || D/ x/ | x4 | %35
 x4 | x4 | x4 | x4 | x4 | D x3 | D3 |] %42
V:3
 [D,F,]/[D,G,]/ | [D,A,][D,D] [D,D][D,D] | [D,D]3 [D,D]/[D,D]/ | [G,D][G,D] [G,D][G,D] | %4
 [G,D]3 [G,B,]/[G,B,]/ | A,A, [A,C][A,C] | [A,C]3 [A,,A,]/[A,,A,]/ | [D,A,][D,D] [D,D][D,A,] | %8
 [A,,A,]3 [D,F,]/[D,G,]/ | [D,A,][D,D] [D,D][D,D] | [D,D]3 [D,D]/[D,D]/ | [G,D][G,D] [G,D][G,D] | %12
 [G,D]3 [G,D]/[G,D]/ | [D,D][D,D] [D,A,][D,A,] | [A,,A,][A,,A,] [A,,A,][A,,A,] | %15
 [A,,F,][A,,A,] [A,,A,]>[A,,G,] | [D,F,]3 [A,,A,]/[A,,A,]/ | [D,A,][D,A,] [D,A,]>[D,A,] | %18
 [D,A,]3 [D,D]/[D,D]/ | [G,D][G,B,] [E,B,]>[E,D] | [E,B,]3 [E,B,]/[E,B,]/ | A,A, [A,E][A,E] | %22
 [E,E][E,E] [E,E][E,D] | [A,C][A,E] [E,E][E,E] | [A,E]3 [A,,A,]/[A,,A,]/ | %25
 [D,A,][D,A,] [D,A,]>[D,A,] | [D,A,]3 [D,D]/[D,D]/ | [G,D][G,B,] [E,B,]>[E,D] | %28
 [E,B,]3 [E,B,]/[E,B,]/ | A,A, [A,E][A,E] | [E,E][E,E] [E,E][E,D] | [E,C][E,E] [E,D][E,E] | %32
 [A,C]3 || [D,F,]/[D,G,]/ | [D,A,][D,D] [D,D][D,D] | [D,D]3 [D,D]/[D,D]/ | [G,D][G,D] [G,D][G,D] | %37
 [G,D]3 [G,D]/[G,D]/ | [D,D][D,D] [D,A,][D,A,] | [A,,A,][A,,A,] [A,,A,][A,,A,] | %40
 [A,,F,][A,,A,] [A,,A,]>[A,,G,] | [D,F,]3 |] %42
V:4
 x | x4 | x4 | x4 | x4 | A,A, x2 | x4 | x4 | x4 | x4 | x4 | x4 | x4 | x4 | x4 | x4 | x4 | x4 | x4 | %19
 x4 | x4 | A,A, x2 | x4 | x4 | x4 | x4 | x4 | x4 | x4 | A,A, x2 | x4 | x4 | x3 || x | x4 | x4 | %36
 x4 | x4 | x4 | x4 | x4 | x3 |] %42

